src/48x48/places/folder-gruvbox-original-blue-private.svg

<?xml version="1.0" encoding="UTF-8"?>
<svg width="48" height="48" version="1" xmlns="http://www.w3.org/2000/svg">
 <rect x="4" y="17" width="40" height="26" rx="2" ry="2" opacity=".2"/>
 <path d="m4 34c0 1.108 0.892 2 2 2h36c1.108 0 2-0.892 2-2v-22c0-1.108-0.892-2-2-2h-18c-3 0-4-4-7-4h-11c-1.108 0-2 0.892-2 2" fill="#076678"/>
 <rect x="4" y="15" width="40" height="26" rx="2" ry="2" opacity=".2"/>
 <rect x="6" y="13" width="36" height="16" rx="2" ry="2" fill="#d3d5b8"/>
 <rect x="4" y="16" width="40" height="26" rx="2" ry="2" fill="#83a598"/>
 <path d="m6 6c-1.108 0-2 0.892-2 2v1c0-1.108 0.892-2 2-2h11c3 0 4 4 7 4h18c1.108 0 2 0.892 2 2v-1c0-1.108-0.892-2-2-2h-18c-3 0-4-4-7-4z" fill="#d3d5b8" opacity=".1"/>
 <path d="m20.5 24c-2.485 0-4.5 2.015-4.5 4.5s2.015 4.5 4.5 4.5c1.905-3e-3 3.601-1.204 4.236-3h3.264v2h3v-2h1v-3h-7.264c-0.634-1.796-2.331-2.997-4.236-3zm0 3c0.828 0 1.5 0.672 1.5 1.5s-0.672 1.5-1.5 1.5-1.5-0.672-1.5-1.5 0.672-1.5 1.5-1.5z" fill="#2e3b3b"/>
</svg>

<svg xmlns="http://www.w3.org/2000/svg" width="48" height="48" version="1">
 <rect style="opacity:0.2" width="40" height="26" x="4" y="17" rx="2" ry="2"/>
 <path style="fill:#076678" d="M 4,34 C 4,35.108 4.892,36 6,36 H 42 C 43.108,36 44,35.108 44,34 V 12 C 44,10.892 43.108,10 42,10 H 24 C 21,10 20,6 17,6 H 6 C 4.892,6 4,6.892 4,8"/>
 <rect style="opacity:0.2" width="40" height="26" x="4" y="15" rx="2" ry="2"/>
 <rect style="fill:#d3d5b8" width="36" height="16" x="6" y="13" rx="2" ry="2"/>
 <rect style="fill:#83a598" width="40" height="26" x="4" y="16" rx="2" ry="2"/>
 <path style="opacity:0.1;fill:#d3d5b8" d="M 6,6 C 4.892,6 4,6.892 4,8 V 9 C 4,7.892 4.892,7 6,7 H 17 C 20,7 21,11 24,11 H 42 C 43.108,11 44,11.892 44,13 V 12 C 44,10.892 43.108,10 42,10 H 24 C 21,10 20,6 17,6 Z"/>
 <path style="fill:#2e3b3b" d="M 20.5,24 C 18.015,24 16,26.015 16,28.5 16,30.985 18.015,33 20.5,33 22.405,32.997 24.101,31.796 24.736,30 H 28 V 32 H 31 V 30 H 32 V 27 H 24.736 C 24.102,25.204 22.405,24.003 20.5,24 Z M 20.5,27 C 21.328,27 22,27.672 22,28.5 22,29.328 21.328,30 20.5,30 19.672,30 19,29.328 19,28.5 19,27.672 19.672,27 20.5,27 Z"/>
</svg>
